!!!COA:	Josquin des Prez
!!!CDT:	~1450-1521/08/27
!!!OPR:	Missa Ferialis
!!!ONM:	1
!!!OTL:	Kyrie
!!!AGN:	Mass; Kyrie
!!!SCT:	NJE 4.1
!!!SCA:	New Josquin Edition 4.1
!!!voices:	4
!!!voices-OPR:	4
**kern	**kern	**kern	**kern
*staff4	*staff3	*staff2	*staff1
*Ivox	*Ivox	*Ivox	*Ivox
*I"Bassus	*I"Tenor	*I"Altus	*I"Superius
*I'B	*I'T	*I'A	*I'S
*>[A,B,C]	*>[A,B,C]	*>[A,B,C]	*>[A,B,C]
*>A	*>A	*>A	*>A
*clefF4	*clefGv2	*clefGv2	*clefG2
*k[]	*k[]	*k[]	*k[]
*M2/1	*M2/1	*M2/1	*M2/1
*met(C|)	*met(C|)	*met(C|)	*met(C|)
!!!OMD: Kyrie I
!!section: Kyrie I
=1-	=1-	=1-	=1-
0r	0r	1.c	0r
.	.	2A/	.
=2	=2	=2	=2
0r	0r	1c	0r
.	.	1B	.
=3	=3	=3	=3
0r	0r	1.A	1.cc
.	.	4G/	2a/
.	.	4F/	.
=4	=4	=4	=4
0r	0r	2E/	1cc
.	.	1A	.
.	.	.	1b
.	.	2G#i/	.
=5	=5	=5	=5
0r	0r	1.A	1a
.	.	.	[1cc
.	.	2B\	.
=6	=6	=6	=6
0r	0r	2c\	2cc\]
.	.	2d\	2b\
.	.	1B	1g
=7	=7	=7	=7
0r	0r	1A	1.a
.	.	[1c	.
.	.	.	4g/
.	.	.	4f/
=8	=8	=8	=8
0r	0r	2c\]	1e
.	.	2B\	.
.	.	1G	1b
=9	=9	=9	=9
0r	1.c	1.A	2a/
.	.	.	1cc
.	2A/	4G/	4b\
.	.	4F/	4a/
=10	=10	=10	=10
0r	1c	0E	2g/
.	.	.	1a
.	1B	.	.
.	.	.	2g#i/
=11	=11	=11	=11
0AA	1A	[0e	[0a
.	[1c	.	.
=12	=12	=12	=12
1C	2c\]	1e]	0a]
.	2B\	.	.
1D	[1A	1f	.
=13	=13	=13	=13
0BB	1A]	0d	0b
.	1G#i	.	.
=14	=14	=14	=14
0AA	1A	1c	1.cc
.	1c	[1e	.
.	.	.	4b\
.	.	.	4a/
=15	=15	=15	=15
1E	1B	2e\]	1g
.	.	2d\	.
1F	1A	1c	1cc
=16	=16	=16	=16
1D	1d	0f	2b\
.	.	.	2a/
[1A	1c	.	[1cc
=17	=17	=17	=17
1A]	0A	1e	2cc\]
.	.	.	2b\
1F	.	1d	[1a
=18	=18	=18	=18
0E	0B	[0e	1a]
.	.	.	1g#i
=19	=19	=19	=19
[0AAl	[0Al	0e]	[0al
=20	=20	=20	=20
0AA]	0A]	0el	0a]
!!LO:LB:i:g=z
=21||	=21||	=21||	=21||
*>B	*>B	*>B	*>B
*clefF4	*clefGv2	*clefGv2	*clefG2
*k[]	*k[]	*k[]	*k[]
*M2/1	*M2/1	*M2/1	*M2/1
*met(C|)	*met(C|)	*met(C|)	*met(C|)
!!section: Christe
!!!OMD: Christe
0r	0r	0r	0cc
=22	=22	=22	=22
0r	0r	0r	1b
.	.	.	[1a
=23	=23	=23	=23
0r	[0c	0r	2a/]
.	.	.	4g/
.	.	.	4f/
.	.	.	2.e/
.	.	.	4f/
=24	=24	=24	=24
0r	0c]	0r	2g/
.	.	.	2.a/
.	.	.	4b\
.	.	.	2cc\
=25	=25	=25	=25
0r	0B	0r	4dd\
.	.	.	4cc\
.	.	.	4b\
.	.	.	4a/
.	.	.	2.g#i/
.	.	.	4f#i/
=26	=26	=26	=26
0r	1.A	0r	2a/
.	.	.	1cc
.	4G/	.	4b\
.	4F/	.	4a/
=27	=27	=27	=27
0C	2.E/	0r	1g
.	4F/	.	.
.	2G/	.	1e
.	[2A/	.	.
=28	=28	=28	=28
0BB	2A/]	0r	0d
.	4G#i/	.	.
.	4F#i/	.	.
.	1G#i	.	.
=29	=29	=29	=29
2.AA/	0A	[0c	0r
4BB/	.	.	.
2C/	.	.	.
2D\	.	.	.
=30	=30	=30	=30
2E\	0r	0c]	0r
2F\	.	.	.
2G\	.	.	.
[2A\	.	.	.
=31	=31	=31	=31
2A\]	0r	0B	0dd
4G#i\	.	.	.
4F#i\	.	.	.
1G#i	.	.	.
=32	=32	=32	=32
1A	0r	2A/	0cc
.	.	2.c\	.
1AA	.	.	.
.	.	4d\	.
.	.	2e\	.
=33	=33	=33	=33
1BB	0r	2d\	1b
.	.	1g	.
1C	.	.	2a/
.	.	4f\	[2cc\
.	.	4e\	.
=34	=34	=34	=34
1D	0r	4f\	2cc\]
.	.	4e\	.
.	.	4d\	4b\
.	.	4c\	4a/
1E	.	1B	2.g#i/
.	.	.	4f#i/
=35	=35	=35	=35
2.AA/	[0A	2A/	1a
.	.	1c	.
4BB/	.	.	.
2C/	.	.	2e/
[2D\	.	[2f\	[2a/
=36	=36	=36	=36
4D\]	0A_	2f\]	2a/]
4AA/	.	.	.
2C/	.	1e	2g/
1D	.	.	1f
.	.	2d\	.
=37	=37	=37	=37
2AA/	0A_	1e	2r
2C/	.	.	2e/
2D\	.	2r	2f/
[2F\	.	2c\	[2a/
=38	=38	=38	=38
4F\]	0A]	2d\	4a/]
4E\	.	.	4g/
2C/	.	2e\	1g
1D	.	1d	.
.	.	.	2f#i/
=39	=39	=39	=39
3%4E	[0G	1B	1g
.	.	3c\	3a/
3%2D	.	3%2d	3%2b
=40	=40	=40	=40
3%2C	0G]	3%2e	3%2cc
3%4BB	.	1d	3%2dd
.	.	.	3%2b
.	.	3c\	.
=41	=41	=41	=41
[0AAl	[0Al	[0el	0cc
=42	=42	=42	=42
0AA]	0A]	0e]	0al
!!LO:LB:i:g=z
=43||	=43||	=43||	=43||
*>C	*>C	*>C	*>C
*clefF4	*clefGv2	*clefGv2	*clefG2
*k[]	*k[]	*k[]	*k[]
*M2/1	*M2/1	*M2/1	*M2/1
*met(C|)	*met(C|)	*met(C|)	*met(C|)
!!section: Kyrie II
!!!OMD: Kyrie II
!	!	!	!
[0AA	0r	0r	0a
=44	=44	=44	=44
1AA]	0r	[0e	0a
1BB	.	.	.
=45	=45	=45	=45
0C	0r	0e]	0g
=46	=46	=46	=46
0D	0A	0d	0f
=47	=47	=47	=47
0AA	0A	0c	1r
.	.	.	[1e
=48	=48	=48	=48
0E	0G	1B	2e/]
.	.	.	2f/
.	.	1c	1g
=49	=49	=49	=49
1D	0F	1d	1a
1AA	.	1c	1cc
=50	=50	=50	=50
1D	1r	0d	1b
1BB	1G	.	1dd
=51	=51	=51	=51
0AA	1A	[0e	2.cc\
.	.	.	4b\
.	1c	.	[1a
=52	=52	=52	=52
0E	0B	0e]	2a/]
.	.	.	2g/
.	.	.	1g
=53	=53	=53	=53
0F	0A	0c	1a
.	.	.	[1cc
=54	=54	=54	=54
0E	0c	1r	2cc\]
.	.	.	2b\
.	.	1G	1g
=55	=55	=55	=55
0D	1.d	1.A	1f
.	.	.	[1a
.	2c\	2B\	.
=56	=56	=56	=56
0C	1A	0c	2a/]
.	.	.	2g/
.	1G	.	1e
=57	=57	=57	=57
0D	1B	0F	1d
.	1A	.	1f
=58	=58	=58	=58
1.E	1.c	1.G	1e
.	.	.	[1g
4D\	2B\	4F/	.
4C/	.	4E/	.
=59	=59	=59	=59
0BB	1G	0D	2g/]
.	.	.	2f/
.	1F	.	1d
=60	=60	=60	=60
1AA	0A	1E	1c
1D	.	1F	[1f
=61	=61	=61	=61
1E	1G	1G	2f/]
.	.	.	2e/
1C	1E	[1A	[1e
=62	=62	=62	=62
0D	0F	1A]	2e/]
.	.	.	2d/
.	.	1B	2.d/
.	.	.	4c/
=63	=63	=63	=63
0AAl	0El	0Al	0el
==	==	==	==
*-	*-	*-	*-
!!!RDF**kern: l=long note in original notation
!!!RDF**kern: i=editorial accidental
!!!RDF**kern: V=start of tuplet marker
!!!RDF**kern: Z=end of tuplet marker
!!!ENC:	Jesse Rodin; Victoria Chang 2011/04/04
!!!END:	2011/04/04/
!!!EED:	Jesse Rodin
!!!EEV:	2012/06/24/
!!attribution-level@Jos: 4 (questionable)
!!!ONB:	Translated from MusicXML and edited on 2012/06/24/ by Craig Sapp
!!muse2ps: T^@{OPR}^u^@{ONM}{. }@{OTL}^C^@{COA}?\n@{SCT}^i2I150v85,85,85,150Q16
